!!!COM: Haydn, Franz Joseph
!!!OTL: String Quartet in A Major
!!!OPS: Opus 20
!!!ONM: No. 6
!!!OMD: Allegro di molto e scherzando
!!!OMV: 1
!!!SCT: H III:36
!!!SCA: Thematisch-bibliographisches Werkevererzeichnis (A. van Hoboken)
!!!YOR: Richault Edition, volume 4
!!!ENC: Frances Bennion
!!!CDT: 1732/3/31/-1809/5/31/
!!!CNT: Oesterreich
!!!YEC: Copyright (c) 1994, 2000 Center for Computer Assisted Research in the Humanities
!!!YEM: Rights to all derivative editions reserved.
!!!YEM: Refer to licensing agreement for further details.
!!!YEN: United States of America
**kern	**kern	**kern	**kern	**kern
*k[f#c#g#]	*k[f#c#g#]	*k[f#c#g#]	*k[f#c#g#]	*k[f#c#g#]
*A:	*A:	*A:	*A:	*A:
*clefF4	*clefC3	*clefF	*clefF	*clefF
*M6/8	*M6/8	*M6/8	*M6/8	*M6/8
8r	8r	8r	2.r	4.a
8A	8e	8c#	.	.
8A	8e	8c#	.	.
4A	4e	4c#	.	16cc#
.	.	.	.	16a
.	.	.	.	16ee
.	.	.	.	16cc#
8r	8r	8r	.	16a
.	.	.	.	16e
=2	=2	=2	=2	=2
4r	4r	4r	2.r	8c#
.	.	.	.	8A
8E	8E	8G#	.	8B
4A	4E	4A	.	8c#
.	.	.	.	8A
8r	8r	8r	.	8r
=3	=3	=3	=3	=3
8r	8r	8r	8e	8b
8E	8g#	8b	4r	4r
8E	8g#	8b	.	.
8r	8r	8r	8a	8cc#
8AA	8a	8cc#	4r	4r
8AA	8a	8cc#	.	.
=4	=4	=4	=4	=4
8r	8r	8r	8e	8dd
8GG#	8e	8b	8e	16dd
.	.	.	.	16cc#
8GG#	8e	8b	8e	8dd
4AA	8e	8a	8e	8cc#
.	4r	4r	4r	4r
8r	.	.	.	.
=5	=5	=5	=5	=5
8r	8r	8r	2.r	4.a
8A	8e	8c#	.	.
8A	8e	8c#	.	.
4A	4e	8c#	.	16cc#
.	.	.	.	16a
.	.	4r	.	16ee
.	.	.	.	16cc#
8r	8r	.	.	16a
.	.	.	.	16e
=6	=6	=6	=6	=6
4r	4r	4r	2.r	8c#
.	.	.	.	8A
8E	8E	8G#	.	8B
4A	4E	4A	.	8c#
.	.	.	.	8A
8r	8r	8r	.	8r
=7	=7	=7	=7	=7
8r	8r	8r	8d	8f#
8D	8A	8f#	4r	4r
8D	8A	8f#	.	.
8r	8r	8r	8c#	8e
8A	8c#	8e	4r	4r
8A	8A	8e	.	.
=8	=8	=8	=8	=8
4.G#	4.B	8e	2.r	16B
.	.	.	.	16e
.	.	8d	.	16g#
.	.	.	.	16e
.	.	8d	.	16ee
.	.	.	.	16e
4.A	4.c#	4.c#	.	16cc#
.	.	.	.	16e
.	.	.	.	16c#
.	.	.	.	16e
.	.	.	.	16A
.	.	.	.	16e
=9	=9	=9	=9	=9
4.G#	4.B	4.d	2.r	16B
.	.	.	.	16e
.	.	.	.	16g#
.	.	.	.	16e
.	.	.	.	16ee
.	.	.	.	16e
4.A	4.c#	4.c#	.	16cc#
.	.	.	.	16e
.	.	.	.	16c#
.	.	.	.	16e
.	.	.	.	16A
.	.	.	.	16e
=10	=10	=10	=10	=10
4.G#	4.B	4.d	2.r	16B
.	.	.	.	16e
.	.	.	.	16g#
.	.	.	.	16e
.	.	.	.	16ee
.	.	.	.	16e
8A	8c#	8c#	.	8cc#
4r	4r	4r	.	4r
=11	=11	=11	=11	=11
8r	8r	8r	2.r	4.a
8A	8e	8c#	.	.
8A	8e	8c#	.	.
4A	4e	4c#	.	16cc#
.	.	.	.	16a
.	.	.	.	16ee
.	.	.	.	16cc#
8r	8r	8r	.	16a
.	.	.	.	16e
=12	=12	=12	=12	=12
4r	4r	4r	2.r	8c#
.	.	.	.	8A
8E	8E	8G#	.	8B
4A	4E	4A	.	8c#
.	.	.	.	8A
8r	8r	8r	.	8r
=13	=13	=13	=13	=13
2.r	8b	8dd	2.r	2.r
.	8g#	8b	.	.
.	8a	8cc#	.	.
.	8b	8dd	.	.
.	8g#	8b	.	.
.	8r	8r	.	.
=14	=14	=14	=14	=14
8A	8a	8e	2.r	8cc#
8A	8a	8e	.	8cc#
8A	8a	8e	.	8cc#
8F#	8f#	8a	.	8cc#
8F#	8f#	8a	.	16cc#
.	.	.	.	16dd
8F#	8f#	8a	.	8cc#
=15	=15	=15	=15	=15
2.E#	[2cc#	[4.gg#	2.r	[2bb
.	.	4gg#]	.	.
.	8cc#]	.	.	8bb]
.	8b	8cc#	.	16gg#
.	.	.	.	32ff#
.	.	.	.	32gg#
=16	=16	=16	=16	=16
4F#	4a	4cc#	2.r	8aa
.	.	.	.	16ee#
.	.	.	.	32dd#
.	.	.	.	32ee#
2r	2r	2r	.	8ff#
.	.	.	.	16cc#
.	.	.	.	32b
.	.	.	.	32cc#
.	.	.	.	8dd
.	.	.	.	16b
.	.	.	.	32a
.	.	.	.	32b
=17	=17	=17	=17	=17
4.r	4.r	4.r	2.r	8cc#
.	.	.	.	16g#
.	.	.	.	32f#
.	.	.	.	32g#
.	.	.	.	8a
8E#	8e#	8e#	.	8e#
8F#	8f#	8f#	.	8f#
8A	8a	8a	.	8a
=18	=18	=18	=18	=18
4.C	4.c	4.c	2.r	4.c
4BB	4B	4B	.	4B
8AA#	8A#	8A#	.	8A#
=19	=19	=19	=19	=19
4BB	8B	8B	2.r	4B
.	8f#	8a	.	.
8r	8f#	8a	.	8B
4BB	8r	8r	.	4d#
.	8f#	8a	.	.
8r	8f#	8a	.	8d#
=20	=20	=20	=20	=20
4BB	8r	8r	2.r	4f#
.	8d#	8a	.	.
8r	8d#	8a	.	8f#
4BB	8r	8r	.	4a
.	8d#	8f#	.	.
8r	8d#	8f#	.	8a
=21	=21	=21	=21	=21
4BB	8r	2a	2.r	2cc#
.	8d#	.	.	.
2r	8d#	.	.	.
.	8d#	.	.	.
.	8d#	8g#	.	8b
.	8d#	8f#	.	8a
=22	=22	=22	=22	=22
2.r	4e	2e	2.r	16g#
.	.	.	.	16b
.	.	.	.	16g#
.	.	.	.	16b
.	2r	.	.	16a
.	.	.	.	16cc#
.	.	.	.	8f#
.	.	8d#	.	4r
.	.	8c#	.	.
=23	=23	=23	=23	=23
2.r	2.r	2d#	2.r	16f#
.	.	.	.	16a
.	.	.	.	16f#
.	.	.	.	16a
.	.	.	.	16g#
.	.	.	.	16b
.	.	.	.	8e
.	.	8c#	.	4r
.	.	8B	.	.
=24	=24	=24	=24	=24
2.r	2.r	2c#	2.r	16e
.	.	.	.	16g#
.	.	.	.	16e
.	.	.	.	16g#
.	.	.	.	16f#
.	.	.	.	16a
.	.	.	.	16d#
.	.	.	.	16f#
.	.	8B	.	16d#
.	.	.	.	16f#
.	.	8A	.	16e
.	.	.	.	16g#
=25	=25	=25	=25	=25
2.r	2.r	2.A	2.r	16c#
.	.	.	.	16e
.	.	.	.	16c#
.	.	.	.	16e
.	.	.	.	16d#
.	.	.	.	16f#
.	.	.	.	8B
.	.	.	.	8c#
.	.	.	.	8d#
=26	=26	=26	=26	=26
4r	4r	4G#	2.r	8e
.	.	.	.	16g#
.	.	.	.	16b
8A	8B	8f#	.	8dd#
4G#	4B	8e	.	8ee
.	.	16g#	.	8b
.	.	16e	.	.
8A	8f#	8B	.	8dd#
=27	=27	=27	=27	=27
4G#	4e	8e	2.r	8ee
.	.	16g#	.	8b
.	.	16e	.	.
8A	8f#	8B	.	8dd#
8G#	8e	8B	.	8ee
8A	8f#	8B	.	8dd#
8G#	8e	8B	.	8ee
=28	=28	=28	=28	=28
8A	8f#	8B	2.r	8dd#
8G#	8e	8B	.	8ee
8A	8f#	8B	.	8dd#
8G#	8e	8B	.	8ee
8A	8f#	8B	.	8dd#
8G#	8e	8B	.	8ee
=29	=29	=29	=29	=29
8F#	8a	8B	2.r	16dd#
.	.	.	.	16ee
2r	2r	2r	.	16ff#
.	.	.	.	16gg#
.	.	.	.	16aa
.	.	.	.	16bb
.	.	.	.	16aa
.	.	.	.	16gg#
.	.	.	.	16ff#
.	.	.	.	16ee
8r	8r	8r	.	16dd#
.	.	.	.	16cc#
=30	=30	=30	=30	=30
2.r	2.r	2.r	2.r	8b
.	.	.	.	2r
.	.	.	.	8b
=31	=31	=31	=31	=31
8e	4.e	4.b	2.r	[2gg
8e	.	.	.	.
8e	.	.	.	.
8A	4.ee	4.cc	.	.
8A	.	.	.	8gg]
8A	.	.	.	8aa
=32	=32	=32	=32	=32
8d	4.a	4.cc	2.r	8ff#
8d	.	.	.	8ee
8d	.	.	.	8dd
8F#	4.d	4.a	.	4dd
8F#	.	.	.	.
8F#	.	.	.	8cc
=33	=33	=33	=33	=33
8G	4.g	4.d	2.r	8b
8G	.	.	.	8a
8G	.	.	.	8b
8A	4.e	4.g	.	8cc#
8A	.	.	.	8b
8A	.	.	.	8cc#
=34	=34	=34	=34	=34
4D	4d	8f#	2.r	4.dd
.	.	16f#	.	.
.	.	16g	.	.
2r	2r	16a	.	.
.	.	16g	.	.
.	.	4f#	.	4d
.	.	8r	.	8dd
=35	=35	=35	=35	=35
2.r	8d	16f#	2.r	8dd
.	.	16a	.	.
.	8d	16f#	.	8d
.	.	16a	.	.
.	8d	16f#	.	8dd
.	.	16a	.	.
.	8B	16g#	.	8dd
.	.	16b	.	.
.	8B	16g#	.	8d
.	.	16b	.	.
.	8e	16g#	.	8dd
.	.	16b	.	.
=36	=36	=36	=36	=36
2.r	4A	4a	2.r	8cc#
.	.	.	.	16ee
.	.	.	.	16dd
.	2r	2r	.	16cc#
.	.	.	.	16b
.	.	.	.	4a
.	.	.	.	8ee
=37	=37	=37	=37	=37
2.r	8E	16g	2.r	8ee
.	.	16b	.	.
.	8e	16g	.	8e
.	.	16b	.	.
.	8e	16g	.	8ee
.	.	16b	.	.
.	8c#	16a#	.	8ee
.	.	16cc#	.	.
.	8c#	16a#	.	8e
.	.	16cc#	.	.
.	8f#	16a#	.	8ee
.	.	16cc#	.	.
=38	=38	=38	=38	=38
2.r	4B	4b	2.r	8dd#
.	.	.	.	16ff#
.	.	.	.	16ee
.	2r	2r	.	16dd#
.	.	.	.	16cc#
.	.	.	.	4b
.	.	.	.	16dd#
.	.	.	.	16b
=39	=39	=39	=39	=39
8r	8r	8r	2.r	16gg
.	.	.	.	16ee
8A#	8c#	8g	.	16gg
.	.	.	.	16ee
8B	8d#	8f#	.	16dd#
.	.	.	.	16b
8r	8r	8r	.	16gg
.	.	.	.	16ee
8A#	8c#	8g	.	16gg
.	.	.	.	16ee
8B	8d#	8f#	.	16dd#
.	.	.	.	16b
=40	=40	=40	=40	=40
8r	8r	8r	2.r	16gg
.	.	.	.	16ee
8A#	8c#	8g	.	16gg
.	.	.	.	16ee
8B	8d#	8f#	.	16dd#
.	.	.	.	16b
8r	8r	8r	.	16gg
.	.	.	.	16ee
8A#	8c#	8g	.	16gg
.	.	.	.	16ee
8B	8d#	8f#	.	16dd#
.	.	.	.	16b
=41	=41	=41	=41	=41
2.r	2.r	2.r	2.r	16cc#
.	.	.	.	16ee
.	.	.	.	16dd#
.	.	.	.	16ff#
.	.	.	.	16ee
.	.	.	.	16gg#
.	.	.	.	16ff#
.	.	.	.	16aa
.	.	.	.	16gg#
.	.	.	.	16bb
.	.	.	.	16aa
.	.	.	.	16ccc#
=42	=42	=42	=42	=42
8r	8r	8r	2.r	2bb
8G#	8e	8b	.	.
8G#	8e	8b	.	.
4.F#	4.d#	[4.b	.	.
.	.	.	.	8aa#
.	.	.	.	8aa
=43	=43	=43	=43	=43
8E	8e	8b]	2.r	8gg#
8F#	8a	8dd#	.	8ff#
8G#	8b	8ee	.	8ee
4.A	4e	4r	.	8dd#
.	.	.	.	8cc#
.	8cc#	8ff#	.	8aa
=44	=44	=44	=44	=44
4B	4b	4ee	2.r	4gg#
8BB	8a	8dd#	.	8ff#
4E	4g#	4ee	.	4ee
8r	8r	8r	.	8b
=45	=45	=45	=45	=45
8r	[2.b	8r	2.r	2bb
8G	.	8e	.	.
8G	.	8e	.	.
4F#	.	4d#	.	.
.	.	.	.	8aa#
8r	.	8r	.	8aa
=46	=46	=46	=46	=46
2.r	8b]	8r	2.r	8gg#
.	8a#	8ee	.	4gg
.	8a#	8ee	.	.
.	4b	8ee	.	8gg
.	.	8dd#	.	8ff#
.	8r	8B	.	8r
=47	=47	=47	=47	=47
[2.BB	8r	2b	2.r	8r
.	8ee	.	.	8gg
.	8ee	.	.	8gg
.	4dd#	.	.	4ff#
.	.	8a#	.	.
.	8r	8a	.	8r
=48	=48	=48	=48	=48
2.BB_	8r	8g#	2.r	8r
.	8b	4g	.	8ee
.	8b	.	.	8ee
.	4b	4f#	.	8ee
.	.	.	.	8dd#
.	8a#	8e	.	[8gg
=49	=49	=49	=49	=49
2.BB]	[2b	4d#	2.r	8gg]
.	.	.	.	8ff#
.	.	8g	.	4ee
.	.	4f#	.	.
.	8b]	.	.	8dd#
.	8a#	8e	.	[8gg
=50	=50	=50	=50	=50
4BB	4b	4d#	2.r	8gg]
.	.	.	.	8ff#
8B	8a#	8e	.	4gg
4BB	4b	4d#	.	.
.	.	.	.	8ff#
8r	8r	8r	.	8r
=51	=51	=51	=51	=51
2.r	2.r	4r	2.r	4r
.	.	8g#	.	8b
.	.	8a	.	16cc#
.	.	.	.	16ee
.	.	8b	.	16dd#
.	.	.	.	16ff#
.	.	8cc#	.	16ee
.	.	.	.	16gg#
=52	=52	=52	=52	=52
2r	2r	8dd#	2.r	16ff#
.	.	.	.	16aa
.	.	8ee	.	16gg#
.	.	.	.	16bb
.	.	8ff#	.	16aa
.	.	.	.	16ccc#
.	.	8gg#	.	[4.bb
8G#	8e	8b	.	.
8G#	8e	8b	.	.
=53	=53	=53	=53	=53
4.F#	4.d#	2b	2.r	8bb]
.	.	.	.	8aa#
.	.	.	.	8aa
8E	8e	.	.	8gg#
8F#	8a	8dd#	.	8ff#
8G#	8b	8ee	.	8ee
=54	=54	=54	=54	=54
4.A	4e	4r	2.r	8dd#
.	.	.	.	8cc#
.	8cc#	8ff#	.	8aa
4B	4b	4ee	.	4gg#
8BB	8a	8dd#	.	8ff#
=55	=55	=55	=55	=55
4E	4g#	4ee	2.r	4ee
8r	8r	8r	.	8b
8e	8e	8g#	.	8b
8e	8e	8g#	.	8b
8e	8e	8g#	.	8b
=56	=56	=56	=56	=56
8c#	8e	8g#	2.r	8ee
8c#	8e	8g#	.	8ee
8c#	8e	8ee	.	8ee
8B	8b	8dd#	.	8ff#
8B	8b	16dd#	.	16ff#
.	.	16cc#	.	16ee
8B	8b	8dd#	.	8ff#
=57	=57	=57	=57	=57
4E	4b	4ee	2.r	4gg#
8E	8b	8ee	.	8gg#
8G#	8b#	8dd#	.	8ff#
8G#	8b#	8dd#	.	8ff#
8G#	8b#	8dd#	.	8ff#
=58	=58	=58	=58	=58
8c#	8cc#	8g#	2.r	8ee
8c#	8cc#	8g#	.	16ee
.	.	.	.	16dd#
8c#	8g#	8g#	.	8ee
8A	8a	8cc#	.	8ff#
8F#	8cc#	8a	.	8aa
8B	8a	8f#	.	8dd#
=59	=59	=59	=59	=59
4E	4g#	4g#	4r	4ee
4.r	4.r	4.r	8g#	8b
.	.	.	8a	8cc#
.	.	.	8g#	8b
8BB	8B	8a	8f#	8dd#
=60	=60	=60	=60	=60
4E	4B	4g#	8e	8ee
.	.	.	8ee	8gg#
4.r	4.r	4.r	8g#	8b
.	.	.	8a	8cc#
.	.	.	8g#	8b
8BB	8B	8a	8f#	8dd#
=61	=61	=61	=61	=61
4E	4B	[2.ee	4e	4ee
2r	8G#	.	8B	8e
.	8A	.	8c#	4.e
.	8G#	.	8B	.
.	8F#	.	8A	.
=62	=62	=62	=62	=62
4EE	4G#	2.ee_	4B	4e
2r	8G#	.	8B	8e
.	8A	.	8c#	4.e
.	8G#	.	8B	.
.	8F#	.	8A	.
=63	=63	=63	=63	=63
2.EE	4G#	4.ee]	4B	4.e
.	8A	.	8c#	.
.	4B	4g#	4d	4.e
.	8A	8a	8c#	.
=64	=64	=64	=64	=64
4.EE	2B	2g#	4.d	4.e
8EE	.	.	4.r	8e
4r	4r	4r	.	8f#
.	.	.	.	8g#
=65	=65	=65	=65	=65
8EE	8B	8g#	4.d	4.e
2r	2r	2r	.	.
.	.	.	4.r	8e
.	.	.	.	8f#
8r	8r	8r	.	8g
=66	=66	=66	=66	=66
8AA#	8c#	4.e	2.r	4.f#
8AA#	8c#	.	.	.
8AA#	8c#	.	.	.
8BB	8B	4.d	.	8f#
8BB	8B	.	.	16dd
.	.	.	.	16b
8BB	8B	.	.	8f#
=67	=67	=67	=67	=67
8AA#	8c#	4.e	2.r	8f#
8AA#	8c#	.	.	16ee
.	.	.	.	16cc#
8AA#	8c#	.	.	8f#
8BB	8B	4.d	.	8f#
8BB	8B	.	.	16dd
.	.	.	.	16b
8BB	8B	.	.	8f#
=68	=68	=68	=68	=68
8GG	4B	8d	2.r	8e#
4.r	.	4.r	.	16dd
.	.	.	.	16b
.	4r	.	.	16dd
.	.	.	.	16b
.	.	.	.	8e#
8G	8B	8d	.	4r
8G	8B	8d	.	.
=69	=69	=69	=69	=69
4G	4B	4d	2.r	8e#
.	.	.	.	16dd
.	.	.	.	16b
4r	4r	4r	.	16dd
.	.	.	.	16b
.	.	.	.	8e#
8G	8B	8d	.	4r
8G	8B	8d	.	.
=70	=70	=70	=70	=70
8G	8B	8d	2.r	4.dd
8G	8B	8d	.	.
8G	8B	8d	.	.
8G	8B	8d	.	4.f
8G	8B	8d	.	.
8G	8B	8d	.	.
=71	=71	=71	=71	=71
8G#	8B	8d	2.r	4.e
8G#	8B	8d	.	.
8G#	8B	8d	.	.
8G#	8B	8d	.	[4.ee
8G#	8B	8d	.	.
8G#	8B	8d	.	.
=72	=72	=72	=72	=72
8A	8A	8c#	2.r	4.ee]
8A	8A	8c#	.	.
8A	8A	8c#	.	.
8A	8c#	8e	.	4.g
8A	8c#	8e	.	.
8A	8c#	8e	.	.
=73	=73	=73	=73	=73
8A#	8c#	8e	2.r	4.f#
8A#	8c#	8e	.	.
8A#	8c#	8e	.	.
8A#	8c#	8e	.	4.ff#
8A#	8c#	8e	.	.
8A#	8c#	8e	.	.
=74	=74	=74	=74	=74
8B	8d	8d	2.r	8ff#
8B	8d	8f#	.	8ddd
8B	8d	8f#	.	8ccc#
8B	8d	8f#	.	8bb
8B	8d	8f#	.	16ddd
.	.	.	.	16ccc#
8B	8d	8f#	.	16bb
.	.	.	.	16aa
=75	=75	=75	=75	=75
8B	8d	8g#	2.r	8gg#
8B	8d	8g#	.	8bb
8B	8d	8g#	.	8aa
8B	8d	8g#	.	8gg#
8B	8d	8g#	.	16bb
.	.	.	.	16aa
8B	8d	8g#	.	16gg#
.	.	.	.	16ff#
=76	=76	=76	=76	=76
8c#	8c#	8g#	2.r	4.ee#
8c#	8c#	8g#	.	.
8c#	8c#	8g#	.	.
8c#	8e#	8g#	.	4.cc#
8c#	8e#	8g#	.	.
8c#	8e#	8g#	.	.
=77	=77	=77	=77	=77
4d	4f#	4f#	2.r	8cc
.	.	.	.	16aa
.	.	.	.	16ff#
4r	4r	4r	.	16aa
.	.	.	.	16ff#
.	.	.	.	8cc
8d	8f#	8a	.	4r
8d	8f#	8a	.	.
=78	=78	=78	=78	=78
4d	4f#	4a	2.r	8b#
.	.	.	.	16aa
.	.	.	.	16ff#
4r	4r	4r	.	16aa
.	.	.	.	16ff#
.	.	.	.	8b#
8d	8f#	8a	.	4r
8d	8f#	8a	.	.
=79	=79	=79	=79	=79
8d	8f#	8a	2.r	4.aa
8d	8f#	8a	.	.
8d	8f#	8a	.	.
8d	8f#	8a	.	4.cc
8d	8f#	8a	.	.
8d	8f#	8a	.	.
=80	=80	=80	=80	=80
8d#	8f#	8a	2.r	4.b
8d#	8f#	8a	.	.
8d#	8f#	8a	.	.
8d#	8f#	8a	.	[4.bb
8d#	8f#	8a	.	.
8d#	8f#	8a	.	.
=81	=81	=81	=81	=81
8e	8g#	8g#	2.r	4.bb]
8e	8g#	8g#	.	.
8e	8g#	8g#	.	.
8e	8g#	8b	.	4.dd
8e	8g#	8b	.	.
8e	8g#	8b	.	.
=82	=82	=82	=82	=82
8e#	8g#	8b	2.r	4.cc#
8e#	8g#	8b	.	.
8e#	8g#	8b	.	.
8e#	8g#	8b	.	[4.ccc#
8e#	8g#	8b	.	.
8e#	8g#	8b	.	.
=83	=83	=83	=83	=83
8f#	8f#	8a	2.r	4.ccc#]
8f#	8f#	8a	.	.
8f#	8f#	8a	.	.
8A	8f#	8cc#	.	4.ff#
8A	8f#	8cc#	.	.
8A	8f#	8cc#	.	.
=84	=84	=84	=84	=84
8B	8f#	8f#	2.r	16ddd
.	.	.	.	16bb
4.r	4.r	4.r	.	16ff#
.	.	.	.	16dd
.	.	.	.	16b
.	.	.	.	16dd
.	.	.	.	8b
8B	8f#	16dd	.	4r
.	.	16ff#	.	.
8B	8f#	16dd	.	.
.	.	16ff#	.	.
=85	=85	=85	=85	=85
8G#	8b	8ee	2.r	16ddd
.	.	.	.	16bb
4.r	4.r	4.r	.	16gg#
.	.	.	.	16ee
.	.	.	.	16b
.	.	.	.	16ee
.	.	.	.	8g#
8G#	8b	16dd	.	4r
.	.	16ee	.	.
8G#	8b	16dd	.	.
.	.	16ee	.	.
=86	=86	=86	=86	=86
8A	8e	8cc#	2.r	16ccc#
.	.	.	.	16aa
4.r	4.r	4.r	.	16ee
.	.	.	.	16cc#
.	.	.	.	16a
.	.	.	.	16cc#
.	.	.	.	4a
8A	8e	16cc#	.	.
.	.	16ee	.	.
8G#	8e	16cc#	.	8r
.	.	16ee	.	.
=87	=87	=87	=87	=87
8F#	8a	8dd	2.r	16ccc#
.	.	.	.	16aa
4.r	4.r	4.r	.	16ff#
.	.	.	.	16dd
.	.	.	.	16a
.	.	.	.	16dd
.	.	.	.	4f#
8F#	8a	16cc#	.	.
.	.	16dd	.	.
8F#	8a	16cc#	.	8r
.	.	16dd	.	.
=88	=88	=88	=88	=88
8G#	8d	8b	2.r	16bb
.	.	.	.	16gg#
4.r	4.r	4.r	.	16dd
.	.	.	.	16b
.	.	.	.	16g#
.	.	.	.	16b
.	.	.	.	4g#
8G#	8d	16b	.	.
.	.	16dd	.	.
8F#	8d	16b	.	8r
.	.	16dd	.	.
=89	=89	=89	=89	=89
8E#	8g#	8cc#	2.r	16bb
.	.	.	.	16gg#
4.r	4.r	4.r	.	16ee#
.	.	.	.	16cc#
.	.	.	.	16g#
.	.	.	.	16cc#
.	.	.	.	4e#
8E#	8g#	16b	.	.
.	.	16cc#	.	.
8E#	8g#	16b	.	8r
.	.	16cc#	.	.
=90	=90	=90	=90	=90
4F#	4a	4a	2.r	16f#
.	.	.	.	16cc#
.	.	.	.	16a
.	.	.	.	16cc#
8r	8r	8r	.	16f#
.	.	.	.	16cc#
4E#	4b	4cc#	.	16g#
.	.	.	.	16cc#
.	.	.	.	16ee#
.	.	.	.	16cc#
8r	8r	8r	.	16ccc#
.	.	.	.	16cc#
=91	=91	=91	=91	=91
4F#	4a	4cc#	2.r	16aa
.	.	.	.	16cc#
.	.	.	.	16a
.	.	.	.	16cc#
8r	8r	8r	.	16f#
.	.	.	.	16cc#
4E#	4b	4cc#	.	16g#
.	.	.	.	16cc#
.	.	.	.	16ee#
.	.	.	.	16cc#
8r	8r	8r	.	16ccc#
.	.	.	.	16cc#
=92	=92	=92	=92	=92
4F#	4a	4cc#	2.r	16aa
.	.	.	.	16cc#
.	.	.	.	16a
.	.	.	.	16cc#
8r	8r	8r	.	16f#
.	.	.	.	16cc#
4E#	4b	4cc#	.	16g#
.	.	.	.	16cc#
.	.	.	.	16ee#
.	.	.	.	16cc#
8r	8r	8r	.	16ccc#
.	.	.	.	16cc#
=93	=93	=93	=93	=93
4F#	4f#	4cc#	2.r	16aa
.	.	.	.	16cc#
.	.	.	.	16aa
.	.	.	.	16cc#
2r	8e	4.r	.	16aa#
.	.	.	.	16cc#
.	4d#	.	.	16bb
.	.	.	.	16cc#
.	.	.	.	16bb
.	.	.	.	16cc#
.	8d	8f#	.	16bb#
.	.	.	.	16cc#
=94	=94	=94	=94	=94
4C#	4c#	4e#	2.r	16ccc#
.	.	.	.	16cc#
.	.	.	.	16ccc#
.	.	.	.	16cc#
2r	8e#	4.r	.	16gg#
.	.	.	.	16cc#
.	4f#	.	.	16aa
.	.	.	.	16cc#
.	.	.	.	16aa
.	.	.	.	16cc#
.	8d	8f#	.	16bb#
.	.	.	.	16cc#
=95	=95	=95	=95	=95
4C#	4c#	4e#	2.r	16ccc#
.	.	.	.	16cc#
.	.	.	.	16ccc#
.	.	.	.	16cc#
2r	8e#	4.r	.	16gg#
.	.	.	.	16cc#
.	4f#	.	.	16aa
.	.	.	.	16cc#
.	.	.	.	16aa
.	.	.	.	16cc#
.	8d	8f#	.	16bb#
.	.	.	.	16cc#
=96	=96	=96	=96	=96
4C#	4c#	4e#	2.r	16ccc#
.	.	.	.	16cc#
.	.	.	.	16ccc#
.	.	.	.	16cc#
2r	2r	2r	.	16ccc#
.	.	.	.	16cc#
.	.	.	.	16ccc#
.	.	.	.	16cc#
.	.	.	.	16ccc#
.	.	.	.	16cc#
.	.	.	.	16ccc#
.	.	.	.	16cc#
=97	=97	=97	=97	=97
[2.BB	[2.e#	[2.g#	2.r	8dd
.	.	.	.	8ddd
.	.	.	.	8ddd
.	.	.	.	8ddd
.	.	.	.	16bb
.	.	.	.	32aa#
.	.	.	.	32bb
.	.	.	.	8ddd
=98	=98	=98	=98	=98
2.BB]	2.e#]	2.g#]	2.r	16ee#
.	.	.	.	32dd#
.	.	.	.	32ee#
.	.	.	.	8gg#
.	.	.	.	16b
.	.	.	.	32a#
.	.	.	.	32b
.	.	.	.	8dd
.	.	.	.	16g#
.	.	.	.	32f#
.	.	.	.	32g#
.	.	.	.	8b
=99	=99	=99	=99	=99
2.EE#	2.G#	2.B	2.r	2d
.	.	.	.	8c#
.	.	.	.	8B
=100	=100	=100	=100	=100
4FF#	4A	4A	2.r	16A
.	.	.	.	16f#
.	.	.	.	16a
.	.	.	.	16f#
8r	8r	8r	.	16a
.	.	.	.	16f#
4BB	4B	4B	.	8g#
.	.	.	.	8b
8r	8r	8r	.	8dd
=101	=101	=101	=101	=101
4C#	4c#	4c#	2.r	16c#
.	.	.	.	16e#
.	.	.	.	16g#
.	.	.	.	16e#
8r	8r	8r	.	16g#
.	.	.	.	16e#
4D	4d	4d	.	8f#
.	.	.	.	8a
8r	8r	8r	.	8cc#
=102	=102	=102	=102	=102
4AA	4A	4A	2.r	16A
.	.	.	.	16f#
.	.	.	.	16a
.	.	.	.	16f#
8r	8r	8r	.	16a
.	.	.	.	16f#
4BB	4B	4B	.	8g#
.	.	.	.	8b
8r	8r	8r	.	8dd
=103	=103	=103	=103	=103
4C#	4c#	4c#	2.r	16c#
.	.	.	.	16e#
.	.	.	.	16g#
.	.	.	.	16e#
8r	8r	8r	.	16g#
.	.	.	.	16e#
4F#	4f#	4f#	.	8f#
.	.	.	.	8r
8r	8r	8r	.	8cc#
=104	=104	=104	=104	=104
8f#	8a	8cc#	2.r	8ff#
8f#	8a	8cc#	.	8ff#
8f#	8a	8cc#	.	8ff#
8e#	8g#	8cc#	.	8gg#
8e#	8g#	8cc#	.	8gg#
8e#	8g#	8cc#	.	8gg#
=105	=105	=105	=105	=105
8f#	8f#	8cc#	2.r	8aa
8f#	8cc#	16ff#	.	16aa
.	.	16ee#	.	16gg#
8f#	8cc#	8ff#	.	8aa
4c#	8cc#	8ee#	.	8gg#
.	4r	4r	.	8r
8r	.	.	.	8cc#
=106	=106	=106	=106	=106
8f#	8a	8cc#	2.r	8ff#
8f#	8a	8cc#	.	8ff#
8f#	8a	8cc#	.	8ff#
8e	8b	8dd	.	8gg#
8e	8b	8dd	.	8gg#
8e	8b	8dd	.	8gg#
=107	=107	=107	=107	=107
8A	8a	8cc#	2.r	8aa
8A	8e	16aa	.	16aa
.	.	16gg#	.	16bb
8A	8e	8aa	.	8ccc#
8E	8e	8gg#	.	8bb
4r	4r	4r	.	4r
=108	=108	=108	=108	=108
2.r	2.r	2.r	2.r	2.r
=109	=109	=109	=109	=109
8r	8r	8r	2.r	4.a
8A	8e	8c#	.	.
8A	8e	8c#	.	.
4A	4e	4c#	.	16cc#
.	.	.	.	16a
.	.	.	.	16ee
.	.	.	.	16cc#
8r	8r	8r	.	16a
.	.	.	.	16e
=110	=110	=110	=110	=110
4r	4r	4r	2.r	8c#
.	.	.	.	8A
8E	8E	8G#	.	8B
4A	4E	4A	.	8c#
.	.	.	.	8A
8r	8r	8r	.	8r
=111	=111	=111	=111	=111
8r	8r	8r	8e	8b
8E	8g#	8b	4r	4r
8E	8g#	8b	.	.
8r	8r	8r	8a	8cc#
8AA	8a	8cc#	4r	4r
8AA	8a	8cc#	.	.
=112	=112	=112	=112	=112
8r	8r	8r	2.r	8dd
8GG#	8e	8b	.	16dd
.	.	.	.	16cc#
8GG#	8e	8b	.	8dd
4AA	8e	8a	.	8cc#
.	4r	4r	.	4r
8r	.	.	.	.
=113	=113	=113	=113	=113
8r	8r	8r	2.r	4.a
8A	8e	8c	.	.
8A	8e	8c	.	.
4A	4e	4c	.	16cc
.	.	.	.	16a
.	.	.	.	16ee
.	.	.	.	16cc
8r	8r	8r	.	16a
.	.	.	.	16e
=114	=114	=114	=114	=114
4r	4r	4r	2.r	8c
.	.	.	.	8A
8E	8E	8G#	.	8B
4A	4E	4A	.	8c
.	.	.	.	8A
8r	8c	8r	.	8ee
=115	=115	=115	=115	=115
2.r	4d	4r	2.r	16ff
.	.	.	.	16aa
.	.	.	.	16ff
.	.	.	.	16aa
.	8f	8a	.	16ff
.	.	.	.	16dd
.	4g	16b	.	8b
.	.	16dd	.	.
.	.	16b	.	8r
.	.	16dd	.	.
.	8B	16b	.	8dd
.	.	16g	.	.
=116	=116	=116	=116	=116
2.r	4c	8e	2.r	16ee
.	.	.	.	16gg
.	.	8r	.	16ee
.	.	.	.	16gg
.	8e	8g	.	16ee
.	.	.	.	16cc
.	4f	16a	.	8a
.	.	16cc	.	.
.	.	16a	.	8r
.	.	16cc	.	.
.	8A	16a	.	8cc
.	.	16f	.	.
=117	=117	=117	=117	=117
2.r	4B	8d	2.r	16dd
.	.	.	.	16ff
.	.	8r	.	16dd
.	.	.	.	16ff
.	8d	8d	.	16dd
.	.	.	.	16b
.	4e	16g#	.	8g#
.	.	16b	.	.
.	.	16g#	.	8r
.	.	16b	.	.
.	8G#	16g#	.	8b
.	.	16e	.	.
=118	=118	=118	=118	=118
2.r	4A	8cc	2.r	16cc
.	.	.	.	16ee
.	.	2r	.	16cc
.	.	.	.	16ee
.	8G	.	.	8b
.	4F	.	.	16a
.	.	.	.	16cc
.	.	.	.	16a
.	.	.	.	16cc
.	8F	8A	.	8d#
=119	=119	=119	=119	=119
8EE	8E	8G#	2.r	4e
8E	8B	8G#	.	.
8E	8B	8G#	.	8e
8EE	8B	8e	.	4g#
8E	8B	8e	.	.
8E	8B	8e	.	8g#
=120	=120	=120	=120	=120
8EE	8E	8g#	2.r	4b
8E	8e	8g#	.	.
8E	8e	8g#	.	8b
8EE	8G#	8b	.	4dd
8E	8g#	8b	.	.
8E	8g#	8b	.	8dd
=121	=121	=121	=121	=121
4GG#	8g#	2dd	2.r	2ff#
.	8g#	.	.	.
2r	8g#	.	.	.
.	8g#	.	.	.
.	8g#	8cc#	.	8ee
.	8g#	8b	.	8dd
=122	=122	=122	=122	=122
2.r	4a	2a	2.r	16cc#
.	.	.	.	16ee
.	.	.	.	16cc#
.	.	.	.	16ee
.	2r	.	.	16dd
.	.	.	.	16ff#
.	.	.	.	8b
.	.	8g#	.	4r
.	.	8f#	.	.
=123	=123	=123	=123	=123
2.r	2.r	2g#	2.r	16b
.	.	.	.	16dd
.	.	.	.	16b
.	.	.	.	16dd
.	.	.	.	16cc#
.	.	.	.	16ee
.	.	.	.	8a
.	.	8f#	.	4r
.	.	8e	.	.
=124	=124	=124	=124	=124
2.r	2.r	2f#	2.r	16a
.	.	.	.	16cc#
.	.	.	.	16a
.	.	.	.	16cc#
.	.	.	.	16b
.	.	.	.	16dd
.	.	.	.	16g#
.	.	.	.	16b
.	.	8e	.	16g#
.	.	.	.	16b
.	.	8d	.	16a
.	.	.	.	16cc#
=125	=125	=125	=125	=125
2.r	2.r	2.d	2.r	16f#
.	.	.	.	16a
.	.	.	.	16f#
.	.	.	.	16a
.	.	.	.	16g#
.	.	.	.	16b
.	.	.	.	8e
.	.	.	.	8f#
.	.	.	.	8g#
=126	=126	=126	=126	=126
4r	4r	4c#	2.r	8a
.	.	.	.	16cc#
.	.	.	.	16a
8d	8e	8g#	.	8e
4c#	4e	8a	.	8a
.	.	8e	.	16cc#
.	.	.	.	16a
8d	8e	8g#	.	8e
=127	=127	=127	=127	=127
4c#	4e	8a	2.r	8a
.	.	8e	.	16cc#
.	.	.	.	16a
8d	8B	8g#	.	8e
8c#	8A	8a	.	8a
8d	8B	8e	.	8g#
8c#	8A	8e	.	8a
=128	=128	=128	=128	=128
8d	8B	8e	2.r	8g#
8c#	8A	8e	.	8a
8d	8B	8e	.	8g#
8c#	8A	8e	.	8a
8d	8B	8e	.	8g#
8c#	8A	8e	.	8a
=129	=129	=129	=129	=129
4B	4d	4e	2.r	16g#
.	.	.	.	16a
.	.	.	.	16b
.	.	.	.	16cc#
2r	2r	2r	.	16dd
.	.	.	.	16ee
.	.	.	.	16dd
.	.	.	.	16cc#
.	.	.	.	16b
.	.	.	.	16a
.	.	.	.	16g#
.	.	.	.	16f#
=130	=130	=130	=130	=130
2.r	2.r	2.r	2.r	4e
.	.	.	.	4.r
.	.	.	.	8ee
=131	=131	=131	=131	=131
8A	4.A	4.ee	2.r	[2ccc
8A	.	.	.	.
8A	.	.	.	.
8D	4.a	[4.ff	.	.
8D	.	.	.	8ccc]
8D	.	.	.	8ddd
=132	=132	=132	=132	=132
8G	4.d	4.ff]	2.r	8bb
8G	.	.	.	8aa
8G	.	.	.	8gg
8BB	4.G	4.dd	.	4gg
8BB	.	.	.	.
8BB	.	.	.	8ff
=133	=133	=133	=133	=133
8C	4.c	4.g	2.r	8ee
8C	.	.	.	8dd
8C	.	.	.	8ee
8D	4.A	4.cc	.	8ff#
8D	.	.	.	8ee
8D	.	.	.	8ff#
=134	=134	=134	=134	=134
4GG	4G	8b	2.r	4.gg
.	.	16b	.	.
.	.	16cc	.	.
2r	2r	16dd	.	.
.	.	16cc	.	.
.	.	8b	.	4g
.	.	4r	.	.
.	.	.	.	8gg
=135	=135	=135	=135	=135
2.r	8g	16b	2.r	8gg
.	.	16dd	.	.
.	8g	16b	.	8g
.	.	16dd	.	.
.	8g	16b	.	8gg
.	.	16dd	.	.
.	8e	16cc#	.	8gg
.	.	16ee	.	.
.	8e	16cc#	.	8g
.	.	16ee	.	.
.	8a	16cc#	.	8gg
.	.	16ee	.	.
=136	=136	=136	=136	=136
2.r	4d	4dd	2.r	8ff#
.	.	.	.	16aa
.	.	.	.	16gg
.	2r	2r	.	16ff#
.	.	.	.	16ee
.	.	.	.	4dd
.	.	.	.	8aa
=137	=137	=137	=137	=137
2.r	8A	16cc	2.r	8aa
.	.	16ee	.	.
.	8a	16cc	.	8a
.	.	16ee	.	.
.	8a	16cc	.	8aa
.	.	16ee	.	.
.	8f#	16dd#	.	8aa
.	.	16ff#	.	.
.	8b	16dd#	.	8a
.	.	16ff#	.	.
.	8b	16dd#	.	8aa
.	.	16ff#	.	.
=138	=138	=138	=138	=138
2.r	4e	4ee	2.r	8gg#
.	.	.	.	16bb
.	.	.	.	16aa
.	2r	2r	.	16gg#
.	.	.	.	16ff#
.	.	.	.	4ee
.	.	.	.	16g#
.	.	.	.	16e
=139	=139	=139	=139	=139
8r	8r	8r	2.r	16cc
.	.	.	.	16a
8D#	8F#	8c	.	16cc
.	.	.	.	16a
8E	8G#	8B	.	16g#
.	.	.	.	16e
8r	8r	8r	.	16cc
.	.	.	.	16a
8D#	8F#	8c	.	16cc
.	.	.	.	16a
8E	8G#	8B	.	16g#
.	.	.	.	16e
=140	=140	=140	=140	=140
8r	8r	8r	2.r	16cc
.	.	.	.	16a
8D#	8F#	8c	.	16cc
.	.	.	.	16a
8E	8G#	8B	.	16g#
.	.	.	.	16e
8r	8r	8r	.	16cc
.	.	.	.	16a
8D#	8F#	8c	.	16cc
.	.	.	.	16a
8E	8G#	8B	.	16g#
.	.	.	.	16e
=141	=141	=141	=141	=141
2.r	2.r	2.r	2.r	16f#
.	.	.	.	16a
.	.	.	.	16g#
.	.	.	.	16b
.	.	.	.	16a
.	.	.	.	16cc#
.	.	.	.	16b
.	.	.	.	16dd
.	.	.	.	16cc#
.	.	.	.	16ee
.	.	.	.	16dd
.	.	.	.	16ff#
=142	=142	=142	=142	=142
8r	8r	8r	2.r	2ee
8C#	8A	8e	.	.
8C#	8A	8e	.	.
4.BB	4G#	[4.e	.	.
.	.	.	.	8dd#
.	8r	.	.	8dd
=143	=143	=143	=143	=143
8AA	8A	8e]	2.r	8cc#
8BB	8d	8g#	.	8b
8C#	8e	8a	.	8a
4.D	4A	4r	.	8g#
.	.	.	.	8f#
.	8f#	8b	.	8dd
=144	=144	=144	=144	=144
4E	4e	4a	2.r	4cc#
8EE	8d	8g#	.	8b
4AA	4c#	4a	.	4a
8r	8r	8r	.	8ee
=145	=145	=145	=145	=145
8r	[2.ee	8r	2.r	2eee
8c	.	8a	.	.
8c	.	8a	.	.
4B	.	4g#	.	.
.	.	.	.	8ddd#
8r	.	8r	.	8ddd
=146	=146	=146	=146	=146
2.r	8ee]	8r	2.r	8ccc#
.	8dd#	8aa	.	4.ccc
.	8dd#	8aa	.	.
.	4ee	8aa	.	.
.	.	8gg#	.	8bb
.	8r	8e	.	8r
=147	=147	=147	=147	=147
[2.E	8r	2ee	2.r	8r
.	8a	.	.	8ccc
.	8a	.	.	8ccc
.	4g#	.	.	4bb
.	.	8dd#	.	.
.	8r	8dd	.	8r
=148	=148	=148	=148	=148
2.E_	8r	4cc#	2.r	8r
.	8ee	.	.	8aa
.	8ee	8cc	.	8aa
.	4ee	4b	.	8aa
.	.	.	.	8gg#
.	8dd#	8a	.	[8ccc
=149	=149	=149	=149	=149
2.E]	[2ee	4g#	2.r	8ccc]
.	.	.	.	8bb
.	.	8cc	.	4aa
.	.	4b	.	.
.	8ee]	.	.	8gg#
.	8dd#	8a	.	[8ccc
=150	=150	=150	=150	=150
[2E	4ee	4g#	2.r	8ccc]
.	.	.	.	8bb
.	8dd#	8a	.	8ccc
.	4ee	4g#	.	8ccc
8E]	.	.	.	8bb
8r	8r	8r	.	8r
=151	=151	=151	=151	=151
2.r	2.r	4r	2.r	4r
.	.	8c#	.	8e
.	.	8d	.	16f#
.	.	.	.	16a
.	.	8e	.	16g#
.	.	.	.	16b
.	.	8f#	.	16a
.	.	.	.	16cc#
=152	=152	=152	=152	=152
2r	2r	8g#	2.r	16b
.	.	.	.	16dd
.	.	8a	.	16cc#
.	.	.	.	16ee
.	.	8b	.	16dd
.	.	.	.	16ff#
.	.	8cc#	.	[4.ee
8C#	8A	8e	.	.
8C#	8A	8e	.	.
=153	=153	=153	=153	=153
4.BB	4.G#	4.e	2.r	8ee]
.	.	.	.	8dd#
.	.	.	.	8dd
8AA	8A	8e	.	8cc#
8BB	8d	8g#	.	8b
8C#	8e	8a	.	8a
=154	=154	=154	=154	=154
4.D	4A	4r	2.r	8g#
.	.	.	.	8f#
.	8f#	8b	.	8dd
4E	4e	4a	.	4cc#
8EE	8d	8g#	.	8b
=155	=155	=155	=155	=155
4AA	4c#	4a	2.r	4a
8r	8r	8r	.	8e
8A	8A	8c#	.	8e
8A	8A	8c#	.	8e
8A	8A	8c#	.	8e
=156	=156	=156	=156	=156
8F#	8A	8c#	2.r	8a
8F#	8A	8c#	.	8a
8F#	8A	8a	.	8a
8E	8e	8g#	.	8b
8E	8e	16g#	.	16b
.	.	16f#	.	16a
8E	8e	8g#	.	8b
=157	=157	=157	=157	=157
4AA	4e	4a	2.r	4cc#
8AA	8e	8a	.	8cc#
8C#	8e#	8g#	.	8b
8C#	8e#	8g#	.	8b
8C#	8e#	8g#	.	8b
=158	=158	=158	=158	=158
8F#	8f#	8c#	2.r	8a
8F#	8f#	8c#	.	16a
.	.	.	.	16g#
8F#	8c#	8c#	.	8a
8D	8d	8f#	.	8b
8BB	8f#	8d	.	8dd
8E	8d	8B	.	8g#
=159	=159	=159	=159	=159
4AA	4c#	4c#	4.r	4a
4.r	4.r	4.r	.	8e
.	.	.	8d	8f#
.	.	.	8c#	8e
8EE	8E	8d	8B	8g#
=160	=160	=160	=160	=160
4AA	4E	4c#	8A	8a
.	.	.	8a	8cc#
4.r	4.r	4.r	8c#	8e
.	.	.	8d	8f#
.	.	.	8c#	8e
8EE	8E	8d	8B	8g#
=161	=161	=161	=161	=161
4AA	[2.A	4c#	4A	4a
2r	.	8c#	8e	8a
.	.	8d	8f#	[4.a
.	.	8c#	8e	.
.	.	8B	8d	.
=162	=162	=162	=162	=162
4AA	2.A_	4c#	4e	4a]
2r	.	8c#	8e	8a
.	.	8d	8f#	[4.a
.	.	8c#	8e	.
.	.	8B	8d	.
=163	=163	=163	=163	=163
[2.AA	2.A]	4c#	4e	4.a]
.	.	8d	8f#	.
.	.	4c#	4e	4.a
.	.	8d	8f#	.
=164	=164	=164	=164	=164
4AA]	4A	4c#	4.e	4.a
2r	2r	2r	.	.
.	.	.	8e	4.a
.	.	.	8f#	.
.	.	.	8g	.
=165	=165	=165	=165	=165
[2.AA	[2.A	[2.c#	[2.e	[2.a
=166	=166	=166	=166	=166
4AA]	4A]	4c#]	8e]	8a]
.	.	.	2r	2r
2r	2r	2r	.	.
.	.	.	8r	8r
==	==	==	==	==
*-	*-	*-	*-	*-
!!!RWG1: This file contains only pitch and duration data.
!!!RWG2: Transposing instruments are not transposed.
!!!RWG3: Spines may have incompatible meters.
!!!RWG4: Durations of rests and tied notes may be interpreted.
!!!RWG: Key is interpreted using the Humdrum key tool.
!!!GTL: 6 Divertimentos ("Sun")
!!!AFT: stage1
!!!END: 1997/04/15
!!!KEY: 3376909987
!!!EMD: Converted from MuseData to Humdrum Dec 16, 2000, by Andreas Kornstaedt using muse2kern.
!!!EMD: Manual editing by Craig Sapp, Nov 2001
